X:6502
T:Grande Tortue Blue, La
S:Andy Hornby
R:Other
O:England
N:July 93
M:2/4
C:Andy Hornby
A:Lancaster
K:Bm
A2|\
B3c d2e2| f4 a4 | e3d c2d2 | e6 g2|1\
f3d B2c2 | d2B2 f2d2 |efed c2B2 | c6 :|2\
f3g f2d2 | c2A2 e2c2 |
 B3c B2A2 |B2c2 d2e2 ||\
|: fgfe d2e2 | f2d2 a2f2 | efed c2d2 |
|1\
e4 f2e2|dedc B2c2|d2B2 f2d2|cdcB A2G2|F4 F4:|2\
e4 d2e2|fgfe dfed|c2e2 d2c2|B3c B2A2 | B6 ||
W:Copyright Andy Hornby
